packages/foundations/assets/icons/functional/images/devices/telephone_14.svg

<svg width="14" height="14" viewBox="0 0 14 14" fill="none" xmlns="http://www.w3.org/2000/svg">
<g clip-path="url(#clip0_185_756)">
<path fill-rule="evenodd" clip-rule="evenodd" d="M4.2587 1.6004C4.63163 1.6004 5.00449 1.72467 5.28067 2.01464L6.95167 3.69943C7.17261 3.92045 7.26929 4.18283 7.26929 4.45901C7.26929 4.76284 7.14496 5.06661 6.92402 5.28762L6.3578 5.85377C7.0492 6.75466 7.26675 7.01634 8.12548 7.64904L8.73308 7.04144C8.95409 6.8205 9.24406 6.73761 9.50645 6.73761C9.78263 6.73761 10.045 6.84808 10.266 7.05523L11.9232 8.74003C12.2131 9.03007 12.3375 9.40293 12.3375 9.77579C12.3375 10.7977 10.7494 12.3996 9.47887 12.3996C6.15772 12.3996 1.66248 7.90598 1.66248 4.7214C1.66248 3.26285 3.01253 1.6004 4.2587 1.6004ZM4.24335 2.94296C4.21732 2.93992 4.17588 2.95371 4.13444 2.98137C3.55442 3.25755 3.01586 4.07229 3.01586 4.7214C3.01586 7.09222 6.99969 11.0324 9.24406 11.0324C9.9622 11.0324 10.3351 10.7148 10.9289 9.98294C11.0393 9.81716 11.0117 9.74814 10.9703 9.67911L9.50645 8.20147L8.67784 9.00242C8.53979 9.11289 8.38787 9.20957 8.19451 9.20957C7.44596 9.20957 4.81113 6.58131 4.81113 5.77095C4.81113 5.59138 4.86636 5.43947 5.00449 5.3152L5.80544 4.4866L4.3278 2.98137C4.30347 2.95393 4.27617 2.94296 4.24335 2.94296Z" fill="#1A1C1F"/>
</g>
<defs>
<clipPath id="clip0_185_756">
<rect width="14" height="14" fill="white"/>
</clipPath>
</defs>
</svg>

<svg xmlns="http://www.w3.org/2000/svg" width="14" height="14" fill="none"><g clip-path="url(#a)"><path fill="#1A1C1F" fill-rule="evenodd" d="M4.259 1.6c.373 0 .745.125 1.022.415l1.67 1.684c.222.221.318.484.318.76 0 .304-.124.608-.345.829l-.566.566c.691.9.909 1.162 1.767 1.795l.608-.608a1.103 1.103 0 0 1 1.533.014l1.657 1.685c.29.29.415.663.415 1.036 0 1.022-1.589 2.624-2.86 2.624-3.32 0-7.816-4.494-7.816-7.679 0-1.458 1.35-3.12 2.597-3.12m-.016 1.343c-.026-.003-.067.01-.109.038-.58.277-1.118 1.091-1.118 1.74 0 2.371 3.984 6.311 6.228 6.311.718 0 1.091-.317 1.685-1.05.11-.165.083-.234.041-.303L9.506 8.201l-.828.801c-.138.11-.29.208-.483.208-.749 0-3.384-2.629-3.384-3.44 0-.179.055-.33.193-.455l.801-.828L4.328 2.98a.1.1 0 0 0-.085-.038" clip-rule="evenodd"/></g><defs><clipPath id="a"><path fill="#fff" d="M0 0h14v14H0z"/></clipPath></defs></svg>
